images/client01.svg

<svg fill="none" height="200" viewBox="0 0 200 200" width="200" xmlns="http://www.w3.org/2000/svg"><g fill="#fff"><path d="m38.8609 78.2807-6.8604 15.7969h4.4665l1.2658-3.1633h7.359l1.2592 3.1633h4.5649l-6.8539-15.7969zm2.5383 3.6764 2.2431 5.5276h-4.4928z"/><path d="m51.3882 94.0748v-15.7969l6.3471.0234 3.6918 10.1848 3.6033-10.2082h6.2964v15.7969h-3.9877v-11.6398l-4.2271 11.6398h-3.4972l-4.2389-11.6398v11.6398z"/><path d="m74.0552 94.0748v-15.7969h13.0125v3.5336h-8.9828v2.7021h8.773v3.3256h-8.773v2.8061h8.9828v3.4295z"/><path d="m89.377 78.2807v15.7968h3.9877v-5.612h1.679l4.7813 5.612h4.873l-5.2468-5.8198c2.1538-.18 4.3748-2.0104 4.3748-4.8521 0-3.3243-2.635-5.1249-5.5751-5.1249zm3.9877 3.5335h4.5583c1.0935 0 1.8889.8471 1.8889 1.6628 0 1.0495-1.0306 1.6628-1.8299 1.6628h-4.6173z"/><path d="m109.525 94.0748h-4.072v-15.7969h4.072z"/><path d="m119.179 94.0748h-.879c-4.252 0-6.834-3.3178-6.834-7.8335 0-4.6271 2.553-7.9634 7.923-7.9634h4.407v3.7414h-4.568c-2.18 0-3.722 1.6848-3.722 4.261 0 3.0593 1.763 4.3442 4.303 4.3442h1.049z"/><path d="m127.857 78.2807-6.861 15.7968h4.467l1.265-3.1632h7.359l1.26 3.1632h4.565l-6.854-15.7968zm2.538 3.6764 2.243 5.5276h-4.493z"/><path d="m140.377 94.0748v-15.7969h5.07l6.473 9.9251v-9.9251h3.988v15.7969h-4.906l-6.637-10.1848v10.1848z"/><path d="m61.043 121.719v-15.796h13.0125v3.533h-8.9828v2.702h8.773v3.326h-8.773v2.806h8.9828v3.429z"/><path d="m124.805 121.719v-15.796h13.012v3.533h-8.983v2.702h8.731v3.326h-8.731v2.806h8.983v3.429z"/><path d="m74.56 121.719 6.3358-7.801-6.4866-7.995h5.024l3.8631 4.943 3.8762-4.943h4.8273l-6.4014 7.898 6.3474 7.898h-5.0232l-3.7509-4.865-3.6598 4.865z"/><path d="m92.4189 105.925v15.797h4.0927v-4.988h4.1974c3.552 0 6.244-1.867 6.244-5.496 0-3.006-2.111-5.313-5.726-5.313zm4.0927 3.573h4.4204c1.148 0 1.968.696 1.968 1.818 0 1.055-.816 1.819-1.981 1.819h-4.4074z"/><path d="m108.685 105.923v15.796h3.987v-5.612h1.679l4.782 5.612h4.873l-5.247-5.819c2.153-.18 4.375-2.011 4.375-4.853 0-3.324-2.635-5.124-5.575-5.124zm3.987 3.533h4.559c1.093 0 1.889.847 1.889 1.663 0 1.049-1.031 1.663-1.83 1.663h-4.618z"/><path d="m139.664 121.719v-3.429h7.98c1.181 0 1.692-.632 1.692-1.325 0-.664-.509-1.336-1.692-1.336h-3.606c-3.135 0-4.881-1.891-4.881-4.731 0-2.533 1.599-4.975 6.257-4.975h7.766l-1.679 3.554h-6.716c-1.284 0-1.679.667-1.679 1.304 0 .655.488 1.377 1.469 1.377h3.778c3.494 0 5.01 1.963 5.01 4.534 0 2.764-1.689 5.027-5.201 5.027z"/><path d="m154.3 121.719v-3.429h7.981c1.181 0 1.692-.632 1.692-1.325 0-.664-.51-1.336-1.692-1.336h-3.606c-3.135 0-4.881-1.891-4.881-4.731 0-2.533 1.599-4.975 6.257-4.975h7.766l-1.679 3.554h-6.717c-1.283 0-1.679.667-1.679 1.304 0 .655.489 1.377 1.469 1.377h3.778c3.495 0 5.011 1.963 5.011 4.534 0 2.764-1.69 5.027-5.201 5.027z"/></g></svg>

<svg width="200" height="200" viewBox="0 0 200 200" fill="none" xmlns="http://www.w3.org/2000/svg">
<path d="M38.8609 78.2807L32.0005 94.0776H36.467L37.7328 90.9143H45.0918L46.351 94.0776H50.9159L44.062 78.2807H38.8609ZM41.3992 81.9571L43.6423 87.4847H39.1495L41.3992 81.9571V81.9571Z" fill="white"/>
<path d="M51.3882 94.0748V78.2779L57.7353 78.3013L61.4271 88.4861L65.0304 78.2779H71.3268V94.0748H67.3391V82.435L63.112 94.0748H59.6148L55.3759 82.435V94.0748H51.3882Z" fill="white"/>
<path d="M74.0552 94.0748V78.2779H87.0677V81.8115H78.0849V84.5136H86.8579V87.8392H78.0849V90.6453H87.0677V94.0748H74.0552Z" fill="white"/>
<path d="M89.377 78.2807V94.0775H93.3647V88.4655H95.0437L99.825 94.0775H104.698L99.4512 88.2577C101.605 88.0777 103.826 86.2473 103.826 83.4056C103.826 80.0813 101.191 78.2807 98.2509 78.2807H89.377V78.2807ZM93.3647 81.8142H97.923C99.0165 81.8142 99.8119 82.6613 99.8119 83.477C99.8119 84.5265 98.7813 85.1398 97.982 85.1398H93.3647V81.8142V81.8142Z" fill="white"/>
<path d="M109.525 94.0748H105.453V78.2779H109.525V94.0748Z" fill="white"/>
<path d="M119.179 94.0748H118.3C114.048 94.0748 111.466 90.757 111.466 86.2413C111.466 81.6142 114.019 78.2779 119.389 78.2779H123.796V82.0193H119.228C117.048 82.0193 115.506 83.7041 115.506 86.2803C115.506 89.3396 117.269 90.6245 119.809 90.6245H120.858L119.179 94.0748Z" fill="white"/>
<path d="M127.857 78.2807L120.996 94.0775H125.463L126.728 90.9143H134.087L135.347 94.0775H139.912L133.058 78.2807H127.857ZM130.395 81.9571L132.638 87.4847H128.145L130.395 81.9571Z" fill="white"/>
<path d="M140.377 94.0748V78.2779H145.447L151.92 88.203V78.2779H155.908V94.0748H151.002L144.365 83.89V94.0748H140.377Z" fill="white"/>
<path d="M61.043 121.719V105.923H74.0555V109.456H65.0727V112.158H73.8457V115.484H65.0727V118.29H74.0555V121.719H61.043Z" fill="white"/>
<path d="M124.805 121.719V105.923H137.817V109.456H128.834V112.158H137.565V115.484H128.834V118.29H137.817V121.719H124.805Z" fill="white"/>
<path d="M74.56 121.719L80.8958 113.918L74.4092 105.923H79.4332L83.2963 110.866L87.1725 105.923H91.9998L85.5984 113.821L91.9458 121.719H86.9226L83.1717 116.854L79.5119 121.719H74.56Z" fill="white"/>
<path d="M92.4189 105.925V121.722H96.5116V116.734H100.709C104.261 116.734 106.953 114.867 106.953 111.238C106.953 108.232 104.842 105.925 101.227 105.925H92.4189V105.925ZM96.5116 109.498H100.932C102.08 109.498 102.9 110.194 102.9 111.316C102.9 112.371 102.084 113.135 100.919 113.135H96.5116V109.498Z" fill="white"/>
<path d="M108.685 105.923V121.719H112.672V116.107H114.351L119.133 121.719H124.006L118.759 115.9C120.912 115.72 123.134 113.889 123.134 111.047C123.134 107.723 120.499 105.923 117.559 105.923H108.685V105.923ZM112.672 109.456H117.231C118.324 109.456 119.12 110.303 119.12 111.119C119.12 112.168 118.089 112.782 117.29 112.782H112.672V109.456V109.456Z" fill="white"/>
<path d="M139.664 121.719V118.29H147.644C148.825 118.29 149.336 117.658 149.336 116.965C149.336 116.301 148.827 115.629 147.644 115.629H144.038C140.903 115.629 139.157 113.738 139.157 110.898C139.157 108.365 140.756 105.923 145.414 105.923H153.18L151.501 109.477H144.785C143.501 109.477 143.106 110.144 143.106 110.781C143.106 111.436 143.594 112.158 144.575 112.158H148.353C151.847 112.158 153.363 114.121 153.363 116.692C153.363 119.456 151.674 121.719 148.162 121.719H139.664Z" fill="white"/>
<path d="M154.3 121.719V118.29H162.281C163.462 118.29 163.973 117.658 163.973 116.965C163.973 116.301 163.463 115.629 162.281 115.629H158.675C155.54 115.629 153.794 113.738 153.794 110.898C153.794 108.365 155.393 105.923 160.051 105.923H167.817L166.138 109.477H159.421C158.138 109.477 157.742 110.144 157.742 110.781C157.742 111.436 158.231 112.158 159.211 112.158H162.989C166.484 112.158 168 114.121 168 116.692C168 119.456 166.31 121.719 162.799 121.719H154.3Z" fill="white"/>
</svg>
